app/assets/images/icons/active/length.svg

<?xml version="1.0" encoding="UTF-8" standalone="no"?>
<svg width="32px" height="232px" viewBox="0 0 32 232" version="1.1" xmlns="http://www.w3.org/2000/svg" xmlns:xlink="http://www.w3.org/1999/xlink" xmlns:sketch="http://www.bohemiancoding.com/sketch/ns">
    <title>length</title>
    <description>Created with Sketch (http://www.bohemiancoding.com/sketch)</description>
    <defs></defs>
    <g id="Graphics" stroke="none" stroke-width="1" fill="none" fill-rule="evenodd" sketch:type="MSPage">
        <path d="M15.9985,149 C9.0955,149 3.4985,143.404 3.4985,136.5 C3.4985,129.596 9.0955,124 15.9985,124 C22.9015,124 28.4985,129.596 28.4985,136.5 C28.4985,143.404 22.9015,149 15.9985,149 L15.9985,149 L15.9985,149 L15.9985,149 Z M15.9985,127.358 C10.9495,127.358 6.8555,131.449 6.8555,136.5 C6.8555,141.549 10.9495,145.643 15.9985,145.643 C21.0475,145.643 25.1405,141.549 25.1405,136.5 C25.1405,131.449 21.0475,127.358 15.9985,127.358 L15.9985,127.358 L15.9985,127.358 L15.9985,127.358 Z M21.0205,141.563 L15.9985,136.5 L15.9985,129.579 C16.0455,129.579 16.0905,129.572 16.1385,129.572 C20.0425,129.572 23.0195,132.737 23.0195,136.641 C23.0195,138.557 22.2565,140.289 21.0205,141.563 L21.0205,141.563 Z M21.0205,141.563" id="length--white" fill="#206FAC" sketch:type="MSShapeGroup"></path>
        <path d="M15.9985,109 C9.0955,109 3.4985,103.404 3.4985,96.5 C3.4985,89.596 9.0955,84 15.9985,84 C22.9015,84 28.4985,89.596 28.4985,96.5 C28.4985,103.404 22.9015,109 15.9985,109 L15.9985,109 L15.9985,109 L15.9985,109 Z M15.9985,87.358 C10.9495,87.358 6.8555,91.449 6.8555,96.5 C6.8555,101.549 10.9495,105.643 15.9985,105.643 C21.0475,105.643 25.1405,101.549 25.1405,96.5 C25.1405,91.449 21.0475,87.358 15.9985,87.358 L15.9985,87.358 L15.9985,87.358 L15.9985,87.358 Z M21.0205,101.563 L15.9985,96.5 L15.9985,89.579 C16.0455,89.579 16.0905,89.572 16.1385,89.572 C20.0425,89.572 23.0195,92.737 23.0195,96.641 C23.0195,98.557 22.2565,100.289 21.0205,101.563 L21.0205,101.563 Z M21.0205,101.563" id="length--subdued-grey" fill="#FFFFFF" sketch:type="MSShapeGroup"></path>
        <path d="M15.9985,69 C9.0955,69 3.4985,63.404 3.4985,56.5 C3.4985,49.596 9.0955,44 15.9985,44 C22.9015,44 28.4985,49.596 28.4985,56.5 C28.4985,63.404 22.9015,69 15.9985,69 L15.9985,69 L15.9985,69 L15.9985,69 Z M15.9985,47.358 C10.9495,47.358 6.8555,51.449 6.8555,56.5 C6.8555,61.549 10.9495,65.643 15.9985,65.643 C21.0475,65.643 25.1405,61.549 25.1405,56.5 C25.1405,51.449 21.0475,47.358 15.9985,47.358 L15.9985,47.358 L15.9985,47.358 L15.9985,47.358 Z M21.0205,61.563 L15.9985,56.5 L15.9985,49.579 C16.0455,49.579 16.0905,49.572 16.1385,49.572 C20.0425,49.572 23.0195,52.737 23.0195,56.641 C23.0195,58.557 22.2565,60.289 21.0205,61.563 L21.0205,61.563 Z M21.0205,61.563" id="length--body-grey" fill="#67737B" sketch:type="MSShapeGroup"></path>
        <path d="M15.9985,29 C9.0955,29 3.4985,23.404 3.4985,16.5 C3.4985,9.596 9.0955,4 15.9985,4 C22.9015,4 28.4985,9.596 28.4985,16.5 C28.4985,23.404 22.9015,29 15.9985,29 L15.9985,29 L15.9985,29 L15.9985,29 Z M15.9985,7.358 C10.9495,7.358 6.8555,11.449 6.8555,16.5 C6.8555,21.549 10.9495,25.643 15.9985,25.643 C21.0475,25.643 25.1405,21.549 25.1405,16.5 C25.1405,11.449 21.0475,7.358 15.9985,7.358 L15.9985,7.358 L15.9985,7.358 L15.9985,7.358 Z M21.0205,21.563 L15.9985,16.5 L15.9985,9.579 C16.0455,9.579 16.0905,9.572 16.1385,9.572 C20.0425,9.572 23.0195,12.737 23.0195,16.641 C23.0195,18.557 22.2565,20.289 21.0205,21.563 L21.0205,21.563 Z M21.0205,21.563" id="length--title-grey" fill="#3A434E" sketch:type="MSShapeGroup"></path>
    </g>
</svg>

<svg width="32" height="232" viewBox="0 0 32 232" xmlns="http://www.w3.org/2000/svg" xmlns:sketch="http://www.bohemiancoding.com/sketch/ns"><title>length</title><g sketch:type="MSPage" fill="none"><path d="M15.998 149c-6.903 0-12.5-5.596-12.5-12.5s5.597-12.5 12.5-12.5 12.5 5.596 12.5 12.5-5.597 12.5-12.5 12.5zm0-21.642c-5.049 0-9.143 4.091-9.143 9.142 0 5.049 4.094 9.143 9.143 9.143s9.142-4.094 9.142-9.143c0-5.051-4.093-9.142-9.142-9.142zm5.022 14.205l-5.022-5.063v-6.921l.14-.007c3.904 0 6.881 3.165 6.881 7.069 0 1.916-.763 3.648-1.999 4.922zm0 0" fill="#206FAC" sketch:type="MSShapeGroup"/><path d="M15.998 109c-6.903 0-12.5-5.596-12.5-12.5s5.597-12.5 12.5-12.5 12.5 5.596 12.5 12.5-5.597 12.5-12.5 12.5zm0-21.642c-5.049 0-9.143 4.091-9.143 9.142 0 5.049 4.094 9.143 9.143 9.143s9.142-4.094 9.142-9.143c0-5.051-4.093-9.142-9.142-9.142zm5.022 14.205l-5.022-5.063v-6.921l.14-.007c3.904 0 6.881 3.165 6.881 7.069 0 1.916-.763 3.648-1.999 4.922zm0 0" fill="#fff" sketch:type="MSShapeGroup"/><path d="M15.998 69c-6.903 0-12.5-5.596-12.5-12.5s5.597-12.5 12.5-12.5 12.5 5.596 12.5 12.5-5.597 12.5-12.5 12.5zm0-21.642c-5.049 0-9.143 4.091-9.143 9.142 0 5.049 4.094 9.143 9.143 9.143s9.142-4.094 9.142-9.143c0-5.051-4.093-9.142-9.142-9.142zm5.022 14.205l-5.022-5.063v-6.921l.14-.007c3.904 0 6.881 3.165 6.881 7.069 0 1.916-.763 3.648-1.999 4.922zm0 0" fill="#67737B" sketch:type="MSShapeGroup"/><path d="M15.998 29c-6.903 0-12.5-5.596-12.5-12.5s5.597-12.5 12.5-12.5 12.5 5.596 12.5 12.5-5.597 12.5-12.5 12.5zm0-21.642c-5.049 0-9.143 4.091-9.143 9.142 0 5.049 4.094 9.143 9.143 9.143s9.142-4.094 9.142-9.143c0-5.051-4.093-9.142-9.142-9.142zm5.022 14.205l-5.022-5.063v-6.921l.14-.007c3.904 0 6.881 3.165 6.881 7.069 0 1.916-.763 3.648-1.999 4.922zm0 0" fill="#3A434E" sketch:type="MSShapeGroup"/></g></svg>
